!!!ONB: MCCC : IRS0102_04 : Extracted Monophonic Melody
!!!COM: Schumann, Robert
!!!OPR: 8 Novelletten
!!!OMV: 4
!!!SCT: Op.21
!!!ODT: 1838///
**kern
*staff1
*clefG2
*k[f#c#]
*D:
*M3/4
=2
4a
4a[
4a]
=3
8a
8a
4dd
8dd
8cc#
=4
4cc#[
4cc#]
4b
=5
4a
4a[
4a]
=6
4a
4a[
4a]
=7
8a
8a
4dd
8dd
8cc#
=8
4cc#[
4cc#]
4b
=9
4a
4a[
4a]
=10
4a
4a[
4a]
=11
8a
8a
4dd
8dd
8cc#
=12
4cc#[
4cc#]
4f#
=13
8f#
8f#
4cc#
8cc#
8b
=14
4b
4e
4f#
=15
4dd
4g
4a
=16
4gg[
4gg]
4gg#
=17
4r
4aa
4ee
=18
2ff#
4ee
=19
2dd
4gg
=20
2gg
4gg
=21
2.gg
=22
8ff#
8ff#
4ff#
4ee
=23
2dd
4gg
=24
2gg
4gg
=25
2.gg
=26
4ff#
4r
4c#
=27
4d#[
2d#]
=28
2f
4b[
=29
4b]
4a
4cc#
=30
4dd
4r
4B
=31
4d[
2d]
=32
2g
4cc[
=33
4cc]
4b
4dd
=34
4ff
4f
4g
=35
4g
4r
4r
=36
4r
4f
4a
=37
4g
4g[
4g]
=38
4g
4g[
4g]
=39
8g[
8g]
8c
8cc
8cc
8b
=40
4b[
4b]
4a
=41
4g[
4g]
4g#
=42
4a
4a[
4a]
=43
8a
8a
4dd
8dd
8cc#
=44
4cc#[
4cc#]
4f#
=45
8f#
8f#
4cc#
8cc#
8b
=46
4b
4e
4f#
=47
4dd
4g
4a
=48
4gg[
4gg]
4gg#
=49
4r
4aa
4ee
=50
2dd
4r
=51
2.r
=52
2.r
=53
4r
4b
4a#
=54
4b
4.cc#[
16cc#]
16dd
=55
2dd
4cc#
=56
2.r
=57
4r
4dd
4cc#
=58
4dd
4.ee[
16ee]
16ff
=59
2.ff[
=60
2ff]
4ee
=61
2.dd#[
=62
2.dd#]
=63
2.ee
=64
2.b
=65
2.b[
=66
4b]
4r
4r
=67
2.r
=68
2.r
=69
4r
4b
4a#
=70
4b
4.cc#[
16cc#]
16dd
=71
2dd
4cc#
=72
2.r
=73
4r
4dd
4cc#
=74
4dd
4.ee[
16ee]
16ff
=75
2.ff[
=76
2ff]
4ee
=77
2.dd#[
=78
2.dd#]
=79
2.ee
=80
2.b
=81
2.b[
=82
4b]
4r
4r
=83
8e
8e
8g#
8g#
4a[
=84
8a]
8g#[
8g#]
8a[
8a]
8a
=85
8a
8a
8a
8a
8a[
8a]
=86
8g
8g
8g
8g
8g[
8g]
=87
8g
8g
8a
8a
4a#[
=88
8a#]
8a[
8a]
8a#[
8a#]
8a#
=89
8a#
8a#
8a#
8a#
8a#[
8a#]
=90
8a
8a
8a
8a
8a[
8a]
=91
8dd
8dd
8dd
8a
4a#[
=92
8a#]
8a[
8a]
8g[
8g]
8e
=93
8e
8e
8e
8e
8e[
8e]
=94
8f
8f
8f
8f
8f[
8f]
=95
8dd
8dd
8dd
8a
4a#[
=96
8a#]
8a[
8a]
8g[
8g]
8e
=97
8e
8e
8e
8e
8e[
8e]
=98
8d#
8d#
8d#
8d#
8d#[
8d#]
=99
8d
8d
8d
8d
8d[
8d]
=100
8d
8d
8d
8d
8d
16d
16d
=101
8c#
8c#
8c#
8c#
8c#[
8c#]
=102
8e
8e
8e
8e
8e[
8e]
=103
4a
4a[
4a]
=104
8a
8a
4dd
8dd
8cc#
=105
4cc#[
4cc#]
4b
=106
4a
4a[
4a]
=107
4a
4a[
4a]
=108
8a
8a
4dd
8dd
8cc#
=109
4cc#[
4cc#]
4b
=110
4a
4a[
4a]
=111
4a
4a[
4a]
=112
8a
8a
4dd
8dd
8cc#
=113
4cc#[
4cc#]
4f#
=114
8f#
8f#
4cc#
8cc#
8b
=115
4b
4e
4f#
=116
4dd
4g
4a
=117
4gg[
4gg]
4gg#
=118
4r
4aa
4ee
=119
2ff#
4ee
=120
2dd
4gg
=121
2gg
4gg
=122
2.gg
=123
8ff#
8ff#
4ff#
4ee
=124
2dd
4gg
=125
2gg
4gg
=126
2.gg
=127
4ff#
4r
4c#
=128
4d#[
2d#]
=129
2f
4b[
=130
4b]
4a
4cc#
=131
4dd
4r
4B
=132
4d[
2d]
=133
2g
4cc[
=134
4cc]
4b
4dd
=135
4ff
4f
4g
=136
4g
4r
4r
=137
4r
4f
4a
=138
4g
4g[
4g]
=139
4g
4g[
4g]
=140
8g[
8g]
8c
8cc
8cc
8b
=141
4b[
4b]
4a
=142
4g[
4g]
4g#
=143
4a
4a[
4a]
=144
8a
8a
4dd
8dd
8cc#
=145
4cc#[
4cc#]
4f#
=146
8f#
8f#
4cc#
8cc#
8b
=147
4b
4e
4f#
=148
4dd
4g
4a
=149
4gg[
4gg]
4gg#
=150
4r
4aa
4ee
=151
8D
8F#
8E
8A
8G#
8d
=152
8A
8c#
8B
8e
8c#
8a
=153
8d
8f#
8e
8a
8g#
8dd
=154
8a
8cc#
8b
8ee
8cc#
8aa
=155
8dd
8ff#
8cc#
8ee
8cc
8aa
=156
8b
8dd
8a#
8gg
8b
8dd
=157
8a
8cc#
8g#
8b
8g
8ee
=158
8f#
8a
8f
8dd
8f#
8a
=159
8B
8d
8c#
8f#
8f
8b
=160
8f#
8a#
8f#
8b
8f#
8cc#
=161
8b
8dd
8cc#
8ff#
8ff
8bb
=162
8ff#
8aa#
8ff#
8bb
8ff#
8ccc#
=163
8bb
8ddd
8aa#
8ccc#
8aa
8fff#
=164
8gg
8bb
8ff#
8eee
8gg
8bb
=165
8ff#
8aa#
8ff
8gg#
8ee
8ccc#
=166
8dd
8ff#
8cc#
8bb
8dd
8ff#
=167
8r
8gg
8g
8gg
8f#
8gg
=168
8g
8gg
8ee
8gg
8dd
8gg
=169
8cc#
8gg
8cc
8gg
8cc#
8gg
=170
8dd
8ff#
8a
8ff#
8f#
8ff#
=171
8r
8ee
8e
8ee
8d#
8ee
=172
8e
8ee
8cc#
8ee
8b
8ee
=173
8a#
8ee
8a
8ee
8a#
8ee
=174
8b
8dd
8f#
8dd
8d
8dd
=175
8e
8g
8f#
8b
8g
8ee
=176
8a
8cc#
8b
8ee
8cc#
8aa
=177
8ee
8gg
8ff#
8bb
8gg
8eee
=178
8aa
8ccc#
8bb
8eee
8ccc#
8aaa
=179
4fff#
4ccc#
4ddd
=180
4bb
4ff#
4gg
=181
4ee
4a
4a
=182
4ff#
4a
4a
=183
4dd
4ee
4ff#
=184
4gg
4aa
4bb
=185
4ccc#
4ddd
4eee
=186
4fff#
4ggg
4aaa
=187
4bbb
4b
4b
=188
8b[
8b]
8e
8ee
8ee
8dd#
=189
4cc#
4b
4a
=190
4ff#
4ff#[
4ff#]
=191
4b
4b[
4b]
=192
8b[
8b]
8e
8ee
8ee
8dd#
=193
4cc#
4b
4a
=194
4ccc
4ccc[
4ccc]
=195
2bb
4aa
=196
2gg
4gg
=197
2gg
4gg
=198
2.gg
=199
2ff#
4ee
=200
2dd
4dd
=201
2dd
4dd
=202
2.dd
=203
*M2/4
4dd
4A
=204
4g
4g#
=205
4a
4r
=206
4e
4r
=207
*M3/4
4d
4d[
4d]
=208
4d
4c#
4g
=209
4e
4d#
4a
=210
4a
4g#
4dd
=211
4a[
4a]
4gg
=212
4g
4f#
4ee
=213
4e
4d
4cc
=214
4c
4B
4a
=215
4d
4d[
4d]
=216
4d
4c#
4g
=217
4e
4d#
4a
=218
4a
4g#
4dd
=219
4a[
4a]
4gg
=220
4g
4f#
4ee
=221
4e
4d
4cc
=222
4c
4B
4a
=223
4d
4d[
4d]
=224
4d
4c#
4g
=225
4d
4d[
4d]
=226
4d
4c#
4g
=227
4f#
4g
4f#
=228
4a#
4a
4cc#
=229
4dd
4ee
4dd
=230
4gg
4ff#
4aa#
=231
4aa
4r
4r
=232
4ddd
4r
4r
=233
[2.D
=234
2.D_
=235
2.D]
==
*-
